!!!!SEGMENT: pl-sa--46-a-i-46--003_anonim--pastorales-podlzcie-za-mna.krn
!!!cenid: 17xx:1360
!!!COM: Anonim
!!!COM-rismid: pe30004985
!!!CDT:
!!!CNT:
!!!GTL: Pastorales
!!!OTL: Pódźcie za mną
!!!PDT:
!!!AGN:
!!!SMS-siglum: PL-SA
!!!SMS-shelfmark: 46/A I 46
!!!SMS-shelfwork: 003 G
!!!SMS-variant:
!!!SMS-altvar:
!!!NIFC-rismid: 1001069556
!!!system-decoration: [(s1,s2)][(s3)][(s4)]
**kern	**fba	**kern	**kern	**text	**kern	**text
*part4	*part4	*part3	*part2	*part2	*part1	*part1
*staff4	*	*staff3	*staff2	*staff2	*staff1	*staff1
*Iorgan	*	*Ivioln	*Iempty	*	*Ialto	*
*I"Organo.	*	*I"Violino Primo	*I"Baſso.	*	*I"Alto.	*
*I'org	*	*I'vl 1	*I'B	*	*I'A	*
*clefF4	*	*clefG2	*clefF4	*	*clefC3	*
*k[f#c#]	*	*k[f#c#]	*k[f#c#]	*	*k[f#c#]	*
*D:	*	*D:	*D:	*	*D:	*
*M2/4	*	*M2/4	*M2/4	*	*M2/4	*
=1	=1	=1	=1	=1	=1	=1
*2\right	*	*2\right	*2\right	*	*2\right	*
!!LO:TX:t=P:problem:all\right, middle or left:global
!	!	!	!	!	!LO:TX:t=P:problem:w źródle  kolejność znaków: cis, fis	!
!LO:TX:t=P:problem:w źródle kolejność znaków: cis, fis	!	!LO:TX:t=P:problem:w źródle  kolejność znaków: cis, fis	!	!	!	!
!LO:TX:b:B:t=alló.	!	!LO:TX:b:B:t=alló	!LO:TX:a:B:t=allo	!	!LO:TX:a:B:t=alló	!
4d\	.	4ddd\	4d\	Podz-	2a\	Hey
8A\L	.	8aa\L	8A\	-cie	.	.
8F#\J	.	8ff#\J	8F#\	za	.	.
=2	=2	=2	=2	=2	=2	=2
2D\	.	4dd\	2D\	mną	2a\	hey
.	.	4r	.	.	.	.
=3	=3	=3	=3	=3	=3	=3
4AA/	.	16gg\LL	4G\	iak	4e\	da-
.	.	16ff#\	.	.	.	.
.	.	16gg\	.	.	.	.
.	.	16aa\JJ	.	.	.	.
4AA/	.	8gg\L	8G\	za	8e\	-na
.	.	8gg\J	8G\	star-	8d\	da-
!	!	!	!LO:LB:g=original	!	!	!
=4	=4	=4	=4	=4	=4	=4
2D\	.	4ff#\	2F#\	-szym	2d\	-na
.	.	4r	.	.	.	.
=5	=5	=5	=5	=5	=5	=5
4d\	.	4ddd\	4d\	u-	2a\	hey
8A\L	.	8aa\L	8A\	-cieſz-	.	.
8F#\J	.	8ff#\J	8F#\	-my	.	.
=6	=6	=6	=6	=6	=6	=6
2D\	.	4dd\	2D\	go	2a\	hey
.	.	4r	.	.	.	.
=7	=7	=7	=7	=7	=7	=7
4A\	.	16ee\LL	4E\	swo-	4e\	da-
.	.	16dd\	.	.	.	.
.	.	16ee\	.	.	.	.
.	.	16gg\JJ	.	.	.	.
4A\	.	8ff#\L	8E\	-im	8e\	-na
.	.	8cc#\J	8E\	mar-	8e\	da-
=8	=8	=8	=8	=8	=8	=8
2D\	.	4ff# 4a 4d/	2D\	-szem	2d\	-na
.	.	4r	.	.	.	.
=9	=9	=9	=9	=9	=9	=9
4d\	.	4ddd\	4d\	podz-	2a\	hey
8A\L	.	8aa\L	8A\	-cie	.	.
8F#\J	.	8ff#\J	8F#\	za	.	.
!	!	!LO:LB:g=original	!	!	!	!
=10	=10	=10	=10	=10	=10	=10
2D\	.	4.dd\	2D\	mną	2a\	hey
.	.	8ff#\	.	.	.	.
!	!	!	!	!	!LO:LB:g=original	!
=11	=11	=11	=11	=11	=11	=11
4A\	7	16gg\LL	4G\	iak	4e\	da-
.	.	16ff#\	.	.	.	.
.	.	16gg\	.	.	.	.
.	.	16aa\JJ	.	.	.	.
4A\	.	8gg\L	8G\	za	8e\	-na
.	.	8gg\J	8G\	star-	8d\	da-
!LO:LB:g=original	!	!	!LO:LB:g=original	!	!	!
=12	=12	=12	=12	=12	=12	=12
2D\	.	4ff#\	2F#\	-szym	2d\	-na
.	.	4r	.	.	.	.
=13	=13	=13	=13	=13	=13	=13
4d\	.	4ddd\	4d\	u-	2a\	hey
8A\L	.	8aa\L	8A\	-cieſz-	.	.
8F#\J	.	8ff#\J	8F#\	-my	.	.
=14	=14	=14	=14	=14	=14	=14
2D\	.	4.dd\	2D\	go	2a\	hey
.	.	8ff#\	.	.	.	.
=15	=15	=15	=15	=15	=15	=15
4A\	.	16ee\LL	4E\	swo-	4e\	da-
.	.	16dd\	.	.	.	.
.	.	16ee\	.	.	.	.
.	.	16gg\JJ	.	.	.	.
4AA/	.	8ff#\L	8E\	-im	8e\	-na
.	.	8cc#\J	8E\	mar-	8d\	da-
=16	=16	=16	=16	=16	=16	=16
2D\	.	4dd\	2D\	-szem	2f#\	-na
.	.	4r	.	.	.	.
=17	=17	=17	=17	=17	=17	=17
4D\	.	4ddd 4a 4d/	4d\	be-	8a\	da-
.	.	.	.	.	8f#\	-na
4D\	.	4ddd 4a 4d/	8F#\	-dzie-	8a\	da-
.	.	.	8G\	-my	8f#\	-na
=18	=18	=18	=18	=18	=18	=18
4D\	.	4ddd 4a 4d/	2A\	grac	8a\	da-
.	.	.	.	.	8f#\	-na
!	!	!	!	!	!LO:LB:g=original	!
4D\	.	4ddd 4a 4d/	.	.	8a\	da-
.	.	.	.	.	8f#\	-na
!	!	!LO:LB:g=original	!	!	!	!
=19	=19	=19	=19	=19	=19	=19
4D\	.	4ddd 4a 4d/	4d\	be-	4a\	hey
4D\	.	4ddd 4a 4d/	8F#\	-dziem	4a\	hey
.	.	.	8G\	spie-	.	.
!	!	!	!LO:LB:g=original	!	!	!
=20	=20	=20	=20	=20	=20	=20
4D\	.	4ddd 4a 4d/	2A\	-wac	4a\	hey
4D\	.	4ddd 4a 4d/	.	.	4a\	hey
=21	=21	=21	=21	=21	=21	=21
8d\L	.	(>8ddd\L	8d\	da-	8dd\	da-
8c#\	.	8ccc#\	8c#\	-na	8cc#\	-na
8d\	.	8ddd\	8d\	da-	8dd\	da-
8c#\J	.	8ccc#\J)	8c#\	-na	8cc#\	-na
=22	=22	=22	=22	=22	=22	=22
8d\L	.	(>8ddd\L	8d\	da-	8dd\	da-
8c#\	.	8ccc#\	8c#\	-na	8cc#\	-na
8d\	.	8ddd\	8d\	da-	8dd\	da-
8c#\J	.	8ccc#\J)	8c#\	-na	8cc#\	-na
!LO:LB:g=original	!	!	!	!	!	!
=23	=23	=23	=23	=23	=23	=23
8d\L	.	4ddd 4a 4d/	8d\	przy-	8dd\	przy-
8A\	.	.	8A\	-wi-	8a\	-wi-
!	!	!	!	!	!LO:LB:g=original	!
8F#\	.	4ddd 4a 4d/	8F#\	-tay-	8f#\	-tay-
8D\J	.	.	8D\	-my	8d\	-my
=24	=24	=24	=24	=24	=24	=24
2D\	.	4ddd 4a 4d/	8F#\	swe-	8f#\	swe-
.	.	.	8A\	-go	8a\	-go
!	!	!	!LO:LB:g=original	!	!	!
.	.	4ddd 4a 4d/	8F#\	Pa-	8f#\	Pa-
.	.	.	8D\	-na	8d\	-na
=25	=25	=25	=25	=25	=25	=25
8d\L	.	4ddd 4a 4d/	8d\	przy-	2d\	hey
8A\	.	.	8A\	-wi-	.	.
8F#\	.	4ddd 4a 4d/	8F#\	-tay-	.	.
8D\J	.	.	8D\	-my	.	.
=26	=26	=26	=26	=26	=26	=26
2D\	.	4ddd 4a 4d/	8F#\	swe-	8f#\	swe-
.	.	.	8A\	-go	8a\	-go
.	.	4ddd 4a 4d/	8F#\	Pa-	8f#\	Pa-
.	.	.	8D\	-na	8d\	-na
=27	=27	=27	=27	=27	=27	=27
4d\	.	4ddd 4a 4d/	4d\	hey	4dd\	hey
4A\	.	4ddd 4a 4d/	4A\	hey	4a\	hey
=28	=28	=28	=28	=28	=28	=28
4D\	.	4ddd 4a 4d/	4D\	hey	4dd\	hey
4r	.	4r	4r	.	4r	.
!	!	!LO:LB:g=original	!LO:LB:g=original	!	!LO:LB:g=original	!
=29	=29	=29	=29	=29	=29	=29
4A\	7	16gg\LL	8G\	da-	8g\	da-
.	.	16ff#\	.	.	.	.
.	.	16gg\	8F#\	-na	8f#\	-na
.	.	16aa\JJ	.	.	.	.
4A\	.	16gg\LL	8G\	da-	8g\	da-
.	.	16ff#\	.	.	.	.
.	.	16gg\	8F#\	-na	8f#\	-na
.	.	16aa\JJ	.	.	.	.
=30	=30	=30	=30	=30	=30	=30
4D\	.	4ff#\	(>8F#\L	da-	4f#\	da-
.	.	.	8D\J)	.	.	.
4D\	.	4dd\	4D\	-na	4d\	-na
=31	=31	=31	=31	=31	=31	=31
4AA/	7	16gg\LL	8G\	da-	8g\	da-
.	.	16ff#\	.	.	.	.
.	.	16gg\	8F#\	-na	8f#\	-na
.	.	16aa\JJ	.	.	.	.
4AA/	.	16gg\LL	8G\	da-	8g\	da-
.	.	16ff#\	.	.	.	.
.	.	16gg\	8F#\	-na	8f#\	-na
.	.	16aa\JJ	.	.	.	.
=32	=32	=32	=32	=32	=32	=32
4D\	.	4ff#\	8F#\L	da-	4f#\	da-
.	.	.	8D\J	.	.	.
4D\	.	4dd\	4D\	-na	4c#\	-na
!LO:LB:g=original	!	!	!	!	!	!
=33	=33	=33	=33	=33	=33	=33
4D/	.	4ddd 4a 4d/	4d\	hey	4dd\	hey
4AA/	.	4ddd 4a 4d/	4A\	hey	4a\	hey
!	!	!	!LO:LB:g=original	!	!LO:LB:g=original	!
=34	=34	=34	=34	=34	=34	=34
4D/	.	4ddd 4a 4d/	4d\	hey	4dd\	hey
4AA/	.	4ddd 4a 4d/	4A\	hey	4a\	hey
=35	=35	=35	=35	=35	=35	=35
4D\	.	4ddd 4a 4d/	4D/	hey	4dd\	hey
4r	.	4r	4r	.	4r	.
==	==	==	==	==	==	==
*-	*-	*-	*-	*-	*-	*-
!!title: @{OTL};
!!!RDF**kern: > = above
!!!RDF**kern: < = below
!!!RDF**kern: | = vertical stroke
!!!RDF**kern: N = linked
!!!RDF**kern: i = editorial accidental
!!!RDF**kern: l = terminal long
!!!ENC: Tomasz Grochalski
!!!END: 2020-11-29
!!!EED: Wojciech Jakubiak-Danek
!!!EST: 2022-01-03
!!!URL-scan: http://bc.bdsandomierz.pl/dlibra/publication/1292/edition/1260/content
!!!ONB-nifc: UWAGA: części Pastorales: 1. Gwałtu, bracia, 2. Cicho wszyscy, 3. Pódźcie za mną
